X: 29253
T: New Mailcoach, The
R: reel
M: 4/4
K: Dmajor
(dB)|A>G (3FED FAAg|fgec dcBd|A>G (3FED AFFg|fgec d2:|
(3ABc|d2 fd adfd|cded (3cBA Bc|d2 fa a2 fd|(3cBA Bc d2 (3ABc|
d2 fd adfd|cded (3cBA Bc|defg abag|fgec dcdB||

